kora-light/actions/scalable/draw-geometry-circle-from-three-points.svg

<svg xmlns="http://www.w3.org/2000/svg" style="fill-rule:evenodd;clip-rule:evenodd;stroke-linejoin:round;stroke-miterlimit:2" width="100%" height="100%" version="1.1" viewBox="0 0 16 16" xml:space="preserve">
 <defs>
  <style id="current-color-scheme" type="text/css">
   .ColorScheme-Text { color:#444444; } .ColorScheme-Highlight { color:#4285f4; } .ColorScheme-NeutralText { color:#ff9800; } .ColorScheme-PositiveText { color:#4caf50; } .ColorScheme-NegativeText { color:#f44336; }
  </style>
 </defs>
 <path style="fill:currentColor;" class="ColorScheme-Text" d="M8,1c-3.84,0 -7,3.16 -7,7c0,3.84 3.16,7 7,7c3.84,0 7,-3.16 7,-7c0,-3.84 -3.16,-7 -7,-7Zm0,1c3.292,-0 6,2.708 6,6c0,3.292 -2.708,6 -6,6c-3.292,0 -6,-2.708 -6,-6c-0,-3.292 2.708,-6 6,-6Z"/>
 <path style="fill:currentColor;" class="ColorScheme-Text" d="M6,0l4,0l0,4l-4,0l0,-4Zm-6,6l4,0l0,4l-4,0l0,-4Zm12,0l4,0l0,4l-4,0l0,-4Z"/>
</svg>

<svg xmlns="http://www.w3.org/2000/svg" width="16" height="16" version="1.1">
 <defs>
  <style id="current-color-scheme" type="text/css">
   .ColorScheme-Text { color:#444444; } .ColorScheme-Highlight { color:#4285f4; }
  </style>
 </defs>
 <path style="fill:currentColor" class="ColorScheme-Text" d="M 8 1 A 7 7 0 0 0 1 8 A 7 7 0 0 0 8 15 A 7 7 0 0 0 15 8 A 7 7 0 0 0 8 1 z M 8 2 A 6 6 0 0 1 14 8 A 6 6 0 0 1 8 14 A 6 6 0 0 1 2 8 A 6 6 0 0 1 8 2 z"/>
 <path style="fill:currentColor" class="ColorScheme-Text" d="M 6,0 H 10 V 4 H 6 Z M 0,6 H 4 V 10 H 0 Z M 12,6 H 16 V 10 H 12 Z"/>
</svg>
